static/paperplane.svg

<svg width="304" height="93" viewBox="0 0 304 93" fill="none" xmlns="http://www.w3.org/2000/svg">
<path fill-rule="evenodd" clip-rule="evenodd" d="M184.398 68.4444L297.401 49.9449L195.968 83.4898C195.325 83.7024 194.619 83.463 194.238 82.9032L184.398 68.4444Z" fill="url(#paint0_linear)"/>
<path d="M297.401 49.9449L184.398 68.4444M297.401 49.9449L174.481 39.1951M297.401 49.9449L179.618 37.8472M297.401 49.9449L195.067 26.27M297.401 49.9449L195.968 83.4898M184.398 68.4444L194.238 82.9032M184.398 68.4444L159.439 72.5304M150.084 66.0342L173.21 39.7051M150.084 66.0342C149.429 66.7805 149.656 67.9449 150.544 68.3903M150.084 66.0342L149.643 66.5367C149.211 67.0288 149.36 67.7967 149.946 68.0904L150.544 68.3903M173.21 39.7051C173.528 39.3425 174 39.1531 174.481 39.1951M173.21 39.7051L173.382 39.5087C173.592 39.2695 173.904 39.1446 174.221 39.1724L174.481 39.1951M179.618 37.8472C178.153 37.6967 177.74 35.7574 179.017 35.0238M179.618 37.8472L178.024 37.6835C177.058 37.5843 176.786 36.3054 177.628 35.8217L179.017 35.0238M179.017 35.0238L193.97 26.4326M193.97 26.4326C194.302 26.2418 194.694 26.1837 195.067 26.27M193.97 26.4326L194.145 26.3315C194.364 26.2057 194.623 26.1674 194.869 26.2243L195.067 26.27M195.968 83.4898C195.325 83.7024 194.619 83.463 194.238 82.9032M195.968 83.4898L195.598 83.6121C195.174 83.7523 194.709 83.5945 194.457 83.2253L194.238 82.9032M159.439 72.5304C159.124 72.5821 158.8 72.5327 158.514 72.3893M159.439 72.5304L159.274 72.5575C159.066 72.5916 158.853 72.559 158.664 72.4645L158.514 72.3893M158.514 72.3893L150.544 68.3903" stroke="white" stroke-width="2"/>
<path d="M1.0001 68.0195C3.89807 63.7842 12.0122 55.0154 21.2848 53.8233" stroke="white" stroke-width="2"/>
<path d="M35.718 51.9056C42.6732 52.1947 57.4736 52.5364 61.034 51.5905" stroke="white" stroke-width="2"/>
<path d="M69.9181 46.5918C72.9781 44.6005 79.0067 39.7361 78.6407 36.2092" stroke="white" stroke-width="2"/>
<path d="M81.0272 25.6229C80.9216 21.7791 79.011 13.513 72.2133 11.1995" stroke="white" stroke-width="2"/>
<path d="M65.3914 8.00731C61.9293 7.67573 53.9963 8.36128 49.9609 13.7562" stroke="white" stroke-width="2"/>
<path d="M45.0605 20.3264C43.2359 24.1405 43.1309 33.4298 48.4235 39.0515" stroke="white" stroke-width="2"/>
<path d="M68.9927 59.3218C74.3172 61.7779 89.5952 61.584 97.6394 56.9809" stroke="white" stroke-width="2"/>
<path d="M105.876 49.0967C108.672 45.5507 116.468 38.9412 125.281 40.8723" stroke="white" stroke-width="2"/>
<path d="M136.587 41.9591C145.292 43.6056 151.933 44.2444 162.607 40.8786" stroke="white" stroke-width="2"/>
<defs>
<linearGradient id="paint0_linear" x1="216.498" y1="22.1646" x2="226.594" y2="78.1279" gradientUnits="userSpaceOnUse">
<stop offset="0.625" stop-color="white" stop-opacity="0"/>
<stop offset="1" stop-color="white"/>
</linearGradient>
</defs>
</svg>

<svg width="304" height="93" fill="none" xmlns="http://www.w3.org/2000/svg"><path fill-rule="evenodd" clip-rule="evenodd" d="M184.398 68.444l113.003-18.5L195.968 83.49a1.517 1.517 0 01-1.73-.587l-9.84-14.459z" fill="url(#paint0_linear)"/><path d="M297.401 49.945l-113.003 18.5m113.003-18.5l-122.92-10.75m122.92 10.75L179.618 37.847m117.783 12.098L195.067 26.27m102.334 23.675L195.968 83.49m-11.57-15.046l9.84 14.46m-9.84-14.46l-24.959 4.086m-9.355-6.496l23.126-26.329m-23.126 26.33a1.517 1.517 0 00.46 2.355m-.46-2.356l-.441.503a1 1 0 00.303 1.553l.598.3m22.666-28.685c.318-.362.79-.552 1.271-.51m-1.271.51l.172-.196a1 1 0 01.839-.337l.26.023m5.137-1.348c-1.465-.15-1.878-2.09-.601-2.823m.601 2.823l-1.594-.163c-.966-.1-1.238-1.379-.396-1.862l1.389-.798m0 0l14.953-8.591m0 0c.332-.191.724-.25 1.097-.163m-1.097.163l.175-.102c.219-.125.478-.164.724-.107l.198.046m.901 57.22a1.517 1.517 0 01-1.73-.587m1.73.587l-.37.122a1 1 0 01-1.141-.387l-.219-.322M159.439 72.53a1.517 1.517 0 01-.925-.14m.925.14l-.165.028a1 1 0 01-.61-.094l-.15-.075m0 0l-7.97-3.999M1 68.02c2.898-4.236 11.012-13.005 20.285-14.197M35.718 51.906c6.955.289 21.756.63 25.316-.316M69.918 46.592c3.06-1.992 9.089-6.856 8.723-10.383M81.027 25.623c-.105-3.844-2.016-12.11-8.814-14.424M65.391 8.007c-3.462-.331-11.395.354-15.43 5.75M45.06 20.326c-1.824 3.814-1.93 13.104 3.363 18.725M68.993 59.322c5.324 2.456 20.602 2.262 28.646-2.341M105.876 49.097c2.796-3.546 10.592-10.156 19.405-8.225M136.587 41.96c8.705 1.646 15.346 2.284 26.02-1.081" stroke="#fff" stroke-width="2"/><defs><linearGradient id="paint0_linear" x1="216.498" y1="22.165" x2="226.594" y2="78.128" gradientUnits="userSpaceOnUse"><stop offset=".625" stop-color="#fff" stop-opacity="0"/><stop offset="1" stop-color="#fff"/></linearGradient></defs></svg>
